markets/PYTH.svg

<svg width="42" height="42" viewBox="0 0 42 42" fill="none" xmlns="http://www.w3.org/2000/svg">
<circle cx="21" cy="21" r="21" fill="#242235"/>
<g clip-path="url(#clip0_7277_55344)">
<path d="M24.75 19.214C24.75 20.7581 23.5187 22.0101 22 22.0101V24.8062C25.0373 24.8062 27.5 22.3022 27.5 19.214C27.5 16.1258 25.0373 13.6218 22 13.6218C20.9987 13.6218 20.0585 13.8937 19.25 14.3705C17.6057 15.3367 16.5 17.1438 16.5 19.214V33.1945L18.9727 35.7085L19.25 35.9905V19.214C19.25 17.6699 20.4813 16.4179 22 16.4179C23.5187 16.4179 24.75 17.6699 24.75 19.214Z" fill="white"/>
<path d="M22 8.03003C19.9963 8.03003 18.1182 8.57508 16.5 9.52734C15.4639 10.1356 14.5361 10.9109 13.75 11.8176C12.0386 13.7891 11 16.3791 11 19.2144V27.6026L13.75 30.3987V19.2144C13.75 16.7306 14.8122 14.4986 16.5 12.9621C17.2935 12.2412 18.2251 11.6722 19.25 11.3054C20.1095 10.9943 21.0361 10.8261 22 10.8261C26.556 10.8261 30.25 14.582 30.25 19.2144C30.25 23.8467 26.556 27.6026 22 27.6026V30.3987C28.0758 30.3987 33 25.3908 33 19.2144C33 13.0379 28.0758 8.03003 22 8.03003Z" fill="white"/>
</g>
<defs>
<clipPath id="clip0_7277_55344">
<rect width="22" height="28" fill="white" transform="translate(11 8)"/>
</clipPath>
</defs>
</svg>

<svg xmlns="http://www.w3.org/2000/svg" width="42" height="42" fill="none"><circle cx="21" cy="21" r="21" fill="#242235"/><g fill="#fff" clip-path="url(#a)"><path d="M24.75 19.214c0 1.544-1.231 2.796-2.75 2.796v2.796c3.037 0 5.5-2.504 5.5-5.592 0-3.088-2.463-5.592-5.5-5.592a5.396 5.396 0 0 0-2.75.748 5.604 5.604 0 0 0-2.75 4.844v13.98l2.473 2.514.277.282V19.214c0-1.544 1.231-2.796 2.75-2.796s2.75 1.252 2.75 2.796Z"/><path d="M22 8.03c-2.004 0-3.882.545-5.5 1.497a11.04 11.04 0 0 0-2.75 2.29A11.249 11.249 0 0 0 11 19.215v8.389l2.75 2.796V19.214a8.43 8.43 0 0 1 2.75-6.252 8.207 8.207 0 0 1 2.75-1.657 8.066 8.066 0 0 1 2.75-.479c4.556 0 8.25 3.756 8.25 8.388 0 4.633-3.694 8.389-8.25 8.389v2.796c6.076 0 11-5.008 11-11.185C33 13.038 28.076 8.03 22 8.03Z"/></g><defs><clipPath id="a"><path fill="#fff" d="M11 8h22v28H11z"/></clipPath></defs></svg>
